X: 6486
T: Cat In The Hopper, The
R: jig
M: 6/8
K: Gdorian
C|:DGA B2c|AFF FAF|G3 g2e|fd^c d2e|
fag fed|dcA B2c|d3 d2c|BGF G3:|
|:g3 gab|afe fga|g3 gfe|fd^c d2e|
f3 fed|dcA B2c|d3 d2c|BGF G3:|

